public/img/sponsors/laradir-dark.svg

<svg width="277" height="100" viewBox="0 0 277 100" fill="none" xmlns="http://www.w3.org/2000/svg">
<path d="M163.22 14.5732C163.22 6.52464 169.744 0 177.793 0H262.317C270.366 0 276.891 6.52464 276.891 14.5732V85.2531C276.891 93.3017 270.366 99.8263 262.317 99.8263H177.793C169.744 99.8263 163.22 93.3017 163.22 85.2531V14.5732Z" fill="#A855F7"/>
<path d="M194.704 78.0365C191.058 78.0365 187.794 77.1388 184.91 75.3434C182.027 73.548 179.742 71.0997 178.055 67.9985C176.423 64.8973 175.607 61.4153 175.607 57.5524C175.607 53.6352 176.423 50.1259 178.055 47.0248C179.742 43.9236 182 41.4753 184.829 39.6799C187.712 37.8845 191.004 36.9868 194.704 36.9868C197.533 36.9868 200.063 37.558 202.293 38.7006C204.578 39.8431 206.401 41.4481 207.761 43.5155C209.176 45.5286 209.937 47.8137 210.046 50.3708V64.4077C209.937 66.9648 209.203 69.277 207.843 71.3445C206.483 73.4119 204.66 75.0441 202.375 76.2411C200.09 77.438 197.533 78.0365 194.704 78.0365ZM196.499 68.1617C198.512 68.1617 200.253 67.7265 201.722 66.856C203.245 65.931 204.415 64.6797 205.231 63.1019C206.102 61.4697 206.537 59.5927 206.537 57.4708C206.537 55.4034 206.102 53.5808 205.231 52.003C204.415 50.3708 203.245 49.1194 201.722 48.2489C200.253 47.324 198.539 46.8615 196.581 46.8615C194.568 46.8615 192.799 47.324 191.276 48.2489C189.807 49.1738 188.637 50.4252 187.767 52.003C186.951 53.5808 186.543 55.4034 186.543 57.4708C186.543 59.5927 186.951 61.4697 187.767 63.1019C188.637 64.6797 189.834 65.931 191.358 66.856C192.881 67.7265 194.595 68.1617 196.499 68.1617ZM216.575 77.2204H205.966V66.6111L207.68 56.9812L205.884 47.5144V18.2165H216.575V77.2204Z" fill="white"/>
<path d="M220.932 77.2204V37.8029H231.705V77.2204H220.932ZM226.319 31.4373C224.578 31.4373 223.136 30.866 221.993 29.7235C220.851 28.5265 220.279 27.0576 220.279 25.3165C220.279 23.6299 220.851 22.1882 221.993 20.9912C223.136 19.7943 224.578 19.1958 226.319 19.1958C228.114 19.1958 229.556 19.7943 230.644 20.9912C231.786 22.1882 232.358 23.6299 232.358 25.3165C232.358 27.0576 231.786 28.5265 230.644 29.7235C229.556 30.866 228.114 31.4373 226.319 31.4373Z" fill="white"/>
<path d="M236.075 77.2204V37.8029H246.766V77.2204H236.075ZM246.766 55.4306L242.604 52.6558C243.093 47.8137 244.508 44.0052 246.847 41.2305C249.187 38.4013 252.56 36.9868 256.967 36.9868C258.871 36.9868 260.585 37.3132 262.108 37.9661C263.632 38.5645 265.019 39.5711 266.27 40.9856L259.578 48.657C258.98 48.0041 258.245 47.5144 257.375 47.188C256.559 46.8615 255.607 46.6983 254.519 46.6983C252.233 46.6983 250.356 47.4328 248.887 48.9018C247.473 50.3164 246.766 52.4926 246.766 55.4306Z" fill="white"/>
<path d="M0 77.0455V19.6738H11.0989V77.0455H0ZM8.16098 77.0455V67.1707H37.3773V77.0455H8.16098Z" fill="white"/>
<path d="M57.4683 77.8616C53.8774 77.8616 50.6402 76.9639 47.7567 75.1685C44.8731 73.3731 42.6153 70.9248 40.9831 67.8236C39.3509 64.7224 38.5348 61.2404 38.5348 57.3775C38.5348 53.4603 39.3509 49.951 40.9831 46.8499C42.6153 43.7487 44.8731 41.3004 47.7567 39.505C50.6402 37.7096 53.8774 36.8119 57.4683 36.8119C60.2974 36.8119 62.8273 37.3831 65.058 38.5257C67.2886 39.6682 69.0569 41.2732 70.3626 43.3406C71.7228 45.3537 72.4573 47.6388 72.5661 50.1959V64.396C72.4573 67.0075 71.7228 69.3198 70.3626 71.3328C69.0569 73.3459 67.2886 74.9509 65.058 76.1478C62.8273 77.2903 60.2974 77.8616 57.4683 77.8616ZM59.4269 67.9868C62.4193 67.9868 64.8404 67.0075 66.6902 65.0489C68.54 63.0358 69.4649 60.4515 69.4649 57.2959C69.4649 55.2285 69.0297 53.4059 68.1592 51.8281C67.3431 50.1959 66.1733 48.9445 64.6499 48.074C63.181 47.1491 61.4399 46.6867 59.4269 46.6867C57.4683 46.6867 55.7273 47.1491 54.2039 48.074C52.7349 48.9445 51.5651 50.1959 50.6946 51.8281C49.8785 53.4059 49.4705 55.2285 49.4705 57.2959C49.4705 59.4178 49.8785 61.2948 50.6946 62.927C51.5651 64.5048 52.7349 65.7562 54.2039 66.6811C55.7273 67.5516 57.4683 67.9868 59.4269 67.9868ZM68.8936 77.0455V66.4362L70.6074 56.8063L68.8936 47.3395V37.628H79.5029V77.0455H68.8936Z" fill="white"/>
<path d="M83.8601 77.0455V37.628H94.551V77.0455H83.8601ZM94.551 55.2557L90.3889 52.481C90.8786 47.6388 92.2931 43.8303 94.6326 41.0556C96.9721 38.2264 100.345 36.8119 104.752 36.8119C106.656 36.8119 108.37 37.1383 109.894 37.7912C111.417 38.3897 112.804 39.3962 114.056 40.8107L107.364 48.4821C106.765 47.8292 106.031 47.3395 105.16 47.0131C104.344 46.6867 103.392 46.5234 102.304 46.5234C100.019 46.5234 98.1418 47.2579 96.6729 48.7269C95.2583 50.1415 94.551 52.3177 94.551 55.2557Z" fill="white"/>
<path d="M130.266 77.8616C126.675 77.8616 123.438 76.9639 120.554 75.1685C117.671 73.3731 115.413 70.9248 113.781 67.8236C112.149 64.7224 111.332 61.2404 111.332 57.3775C111.332 53.4603 112.149 49.951 113.781 46.8499C115.413 43.7487 117.671 41.3004 120.554 39.505C123.438 37.7096 126.675 36.8119 130.266 36.8119C133.095 36.8119 135.625 37.3831 137.856 38.5257C140.086 39.6682 141.854 41.2732 143.16 43.3406C144.52 45.3537 145.255 47.6388 145.364 50.1959V64.396C145.255 67.0075 144.52 69.3198 143.16 71.3328C141.854 73.3459 140.086 74.9509 137.856 76.1478C135.625 77.2903 133.095 77.8616 130.266 77.8616ZM132.225 67.9868C135.217 67.9868 137.638 67.0075 139.488 65.0489C141.338 63.0358 142.263 60.4515 142.263 57.2959C142.263 55.2285 141.827 53.4059 140.957 51.8281C140.141 50.1959 138.971 48.9445 137.448 48.074C135.979 47.1491 134.238 46.6867 132.225 46.6867C130.266 46.6867 128.525 47.1491 127.001 48.074C125.533 48.9445 124.363 50.1959 123.492 51.8281C122.676 53.4059 122.268 55.2285 122.268 57.2959C122.268 59.4178 122.676 61.2948 123.492 62.927C124.363 64.5048 125.533 65.7562 127.001 66.6811C128.525 67.5516 130.266 67.9868 132.225 67.9868ZM141.691 77.0455V66.4362L143.405 56.8063L141.691 47.3395V37.628H152.301V77.0455H141.691Z" fill="white"/>
</svg>

<svg xmlns="http://www.w3.org/2000/svg" width="277" height="100" fill="none"><path fill="#A855F7" d="M163.22 14.573C163.22 6.525 169.744 0 177.793 0h84.524c8.049 0 14.574 6.525 14.574 14.573v70.68c0 8.049-6.525 14.573-14.574 14.573h-84.524c-8.049 0-14.573-6.524-14.573-14.573z"/><path fill="#fff" d="M194.704 78.037q-5.468 0-9.794-2.694-4.325-2.692-6.855-7.344-2.448-4.653-2.448-10.447 0-5.876 2.448-10.527 2.53-4.652 6.774-7.345 4.325-2.693 9.875-2.693 4.244 0 7.589 1.714 3.428 1.713 5.468 4.815 2.122 3.02 2.285 6.855v14.037q-.163 3.835-2.203 6.936t-5.468 4.897q-3.428 1.796-7.671 1.796m1.795-9.875q3.02 0 5.223-1.306a9.33 9.33 0 0 0 3.509-3.754q1.306-2.449 1.306-5.631 0-3.102-1.306-5.468-1.224-2.448-3.509-3.754-2.204-1.388-5.141-1.388-3.02 0-5.305 1.388-2.204 1.387-3.509 3.754-1.224 2.367-1.224 5.468 0 3.183 1.224 5.63a9.9 9.9 0 0 0 3.591 3.755q2.285 1.306 5.141 1.306m20.076 9.058h-10.609V66.611l1.714-9.63-1.796-9.467V18.216h10.691zM220.932 77.22V37.803h10.773V77.22zm5.387-45.783q-2.612 0-4.326-1.713-1.714-1.796-1.714-4.407 0-2.53 1.714-4.326 1.715-1.795 4.326-1.795 2.693 0 4.325 1.795 1.714 1.795 1.714 4.326 0 2.61-1.714 4.407-1.632 1.713-4.325 1.713M236.075 77.22V37.803h10.691V77.22zm10.691-21.79-4.162-2.774q.734-7.263 4.243-11.425 3.51-4.245 10.12-4.244 2.856 0 5.141.98 2.286.897 4.162 3.019l-6.692 7.671a5.6 5.6 0 0 0-2.203-1.469q-1.224-.49-2.856-.49-3.429 0-5.632 2.204-2.121 2.12-2.121 6.529M0 77.046V19.674h11.099v57.372zm8.161 0V67.17h29.216v9.874zM57.468 77.862q-5.386 0-9.711-2.693t-6.774-7.345q-2.448-4.653-2.448-10.446 0-5.877 2.448-10.528t6.774-7.345q4.325-2.693 9.711-2.693 4.245 0 7.59 1.714 3.346 1.713 5.305 4.815 2.04 3.02 2.203 6.855v14.2q-.163 3.917-2.203 6.937-1.959 3.02-5.305 4.815-3.345 1.713-7.59 1.714m1.959-9.875q4.488 0 7.263-2.938 2.775-3.02 2.775-7.753 0-3.102-1.306-5.468-1.224-2.449-3.51-3.754-2.203-1.387-5.222-1.387-2.939 0-5.223 1.387-2.204 1.305-3.51 3.754-1.224 2.367-1.224 5.468 0 3.183 1.225 5.631 1.305 2.367 3.509 3.754 2.285 1.305 5.223 1.306m9.467 9.059v-10.61l1.713-9.63-1.713-9.466v-9.712h10.609v39.418zM83.86 77.046V37.628h10.691v39.418zm10.691-21.79-4.162-2.775q.734-7.263 4.244-11.425 3.51-4.245 10.119-4.244 2.856 0 5.142.98 2.284.897 4.162 3.019l-6.692 7.671a5.6 5.6 0 0 0-2.204-1.469q-1.224-.49-2.856-.49-3.428 0-5.631 2.204-2.122 2.122-2.122 6.529M130.266 77.862q-5.386 0-9.712-2.693t-6.773-7.345q-2.448-4.653-2.449-10.446 0-5.877 2.449-10.528t6.773-7.345q4.326-2.693 9.712-2.693 4.244 0 7.59 1.714t5.304 4.815q2.04 3.02 2.204 6.855v14.2q-.164 3.917-2.204 6.937-1.959 3.02-5.304 4.815-3.346 1.713-7.59 1.714m1.959-9.875q4.488 0 7.263-2.938 2.775-3.02 2.775-7.753 0-3.102-1.306-5.468-1.224-2.449-3.509-3.754-2.203-1.387-5.223-1.387-2.938 0-5.224 1.387-2.202 1.305-3.509 3.754-1.224 2.367-1.224 5.468 0 3.183 1.224 5.631 1.307 2.367 3.509 3.754 2.286 1.305 5.224 1.306m9.466 9.059v-10.61l1.714-9.63-1.714-9.466v-9.712h10.61v39.418z"/></svg>
